SVG_Azure_Grouped/Networking/ExpressRoute Health.svg

<?xml version="1.0" encoding="UTF-8" standalone="no"?>
<!-- Generated by Microsoft Visio, SVG Export ExpressRoute Health.svg Page-1 -->

<svg
   xmlns:dc="http://purl.org/dc/elements/1.1/"
   xmlns:cc="http://creativecommons.org/ns#"
   xmlns:rdf="http://www.w3.org/1999/02/22-rdf-syntax-ns#"
   xmlns:svg="http://www.w3.org/2000/svg"
   xmlns="http://www.w3.org/2000/svg"
   xmlns:sodipodi="http://sodipodi.sourceforge.net/DTD/sodipodi-0.dtd"
   xmlns:inkscape="http://www.inkscape.org/namespaces/inkscape"
   width="0.78735709in"
   height="0.78736645in"
   viewBox="0 0 56.689778 56.690672"
   xml:space="preserve"
   class="st4"
   version="1.1"
   id="svg37"
   sodipodi:docname="ExpressRoute Health.svg"
   style="font-size:12px;overflow:visible;color-interpolation-filters:sRGB;fill:none;fill-rule:evenodd;stroke-linecap:square;stroke-miterlimit:3"
   inkscape:version="0.92.5 (2060ec1f9f, 2020-04-08)"><metadata
   id="metadata43"><rdf:RDF><cc:Work
       rdf:about=""><dc:format>image/svg+xml</dc:format><dc:type
         rdf:resource="http://purl.org/dc/dcmitype/StillImage" /></cc:Work></rdf:RDF></metadata><defs
   id="defs41" /><sodipodi:namedview
   pagecolor="#ffffff"
   bordercolor="#666666"
   borderopacity="1"
   objecttolerance="10"
   gridtolerance="10"
   guidetolerance="10"
   inkscape:pageopacity="0"
   inkscape:pageshadow="2"
   inkscape:window-width="640"
   inkscape:window-height="480"
   id="namedview39"
   showgrid="false"
   inkscape:zoom="1.7193066"
   inkscape:cx="37.795072"
   inkscape:cy="23.279666"
   inkscape:window-x="0"
   inkscape:window-y="0"
   inkscape:window-maximized="0"
   inkscape:current-layer="svg37" />
	<style
   type="text/css"
   id="style2">
	<![CDATA[
		.st1 {fill:#68217a;stroke:none;stroke-linecap:butt;stroke-width:12.24}
		.st2 {fill:#ffffff;fill-opacity:0.098;stroke:none;stroke-linecap:butt;stroke-width:12.24}
		.st3 {fill:#ffffff;stroke:none;stroke-linecap:butt;stroke-width:12.24}
		.st4 {fill:none;fill-rule:evenodd;font-size:12px;overflow:visible;stroke-linecap:square;stroke-miterlimit:3}
	]]>
	</style>

	<g
   id="g35"
   transform="translate(-12.24016,-12.243666)">
		<title
   id="title4">Page-1</title>
		<g
   id="group17989-1"
   transform="translate(12.24,-34.0157)">
			<title
   id="title6">ExpressRoute Health.17989</title>
			<g
   id="group17990-2">
				<title
   id="title8">Sheet.17990</title>
				<g
   id="shape17991-3">
					<title
   id="title10">Sheet.17991</title>
					<path
   d="m 28.35,102.95 a 5.18976,5.18976 0 0 1 -3.7,-1.53 L 1.53,78.3 A 5.26063,5.26063 0 0 1 0,74.6 C 0,73.23 0.56,71.88 1.53,70.91 L 24.65,47.79 a 5.19449,5.19449 0 0 1 3.7,-1.53 5.19685,5.19685 0 0 1 3.7,1.53 l 23.11,23.12 c 0.99,0.98 1.53,2.29 1.53,3.69 0,1.4 -0.54,2.71 -1.53,3.7 l -23.12,23.12 a 5.18976,5.18976 0 0 1 -3.69,1.53 z"
   class="st1"
   id="path12"
   inkscape:connector-curvature="0"
   style="fill:#68217a;stroke:none;stroke-width:12.23999977;stroke-linecap:butt" />
				</g>
				<g
   id="shape17992-5"
   transform="translate(0,-11.5606)">
					<title
   id="title15">Sheet.17992</title>
					<path
   d="m 32.05,59.35 a 5.19449,5.19449 -180 0 0 -3.7,-1.53 5.19331,5.19331 -180 0 0 -3.7,1.53 L 1.53,82.47 C 0.56,83.44 0,84.79 0,86.16 c 0,1.38 0.56,2.73 1.53,3.7 l 13.09,13.09 24.62,-36.4 z"
   class="st2"
   id="path17"
   inkscape:connector-curvature="0"
   style="fill:#ffffff;fill-opacity:0.09800002;stroke:none;stroke-width:12.23999977;stroke-linecap:butt" />
				</g>
				<g
   id="group17993-7"
   transform="translate(8.26772,-8.26772)">
					<title
   id="title20">Sheet.17993</title>
					<g
   id="shape17994-8">
						<title
   id="title22">Sheet.17994</title>
						<path
   d="m 29.71,88.78 -6.21,6.2 A 4.70669,4.70669 -180 0 0 21.51,93.74 V 72 c 1.9,-0.61 3.29,-2.38 3.29,-4.48 a 4.725,4.725 -180 0 0 -9.45,0 c 0,0.16 0.04,0.32 0.05,0.48 L 5.21,78.2 C 5.05,78.18 4.89,78.15 4.72,78.15 a 4.72441,4.72441 -180 1 0 0,9.44 c 0.17,0 0.33,-0.03 0.49,-0.04 L 15.4,97.74 c -0.01,0.16 -0.05,0.32 -0.05,0.48 a 4.725,4.725 -180 0 0 9.45,0 c 0,-0.15 -0.03,-0.3 -0.04,-0.45 l 8.99,-8.99 z M 7.99,86.28 c 0.89,-0.86 1.46,-2.07 1.46,-3.41 0,-1.34 -0.57,-2.55 -1.46,-3.41 l 8.68,-8.68 c 0.54,0.56 1.22,0.97 1.98,1.22 v 21.74 a 4.69134,4.69134 -180 0 0 -1.98,1.22 z"
   class="st3"
   id="path24"
   inkscape:connector-curvature="0"
   style="fill:#ffffff;stroke:none;stroke-width:12.23999977;stroke-linecap:butt" />
					</g>
					<g
   id="shape17995-10"
   transform="translate(25.9843,-16.5354)">
						<title
   id="title27">Sheet.17995</title>
						<path
   d="m 0,95.86 h 3.54 v 7.09 H 0 Z M 11.81,93.5 h 3.54 v 9.45 h -3.54 z m -5.9,-3.54 h 3.54 v 12.99 H 5.91 Z"
   class="st3"
   id="path29"
   inkscape:connector-curvature="0"
   style="fill:#ffffff;stroke:none;stroke-width:12.23999977;stroke-linecap:butt" />
					</g>
				</g>
			</g>
		</g>
	</g>
</svg>

<?xml version="1.0" encoding="UTF-8" standalone="no"?>
<!DOCTYPE svg PUBLIC "-//W3C//DTD SVG 1.1//EN" "http://www.w3.org/Graphics/SVG/1.1/DTD/svg11.dtd">
<!-- Generated by Microsoft Visio, SVG Export ExpressRoute Health.svg Page-1 -->
<svg xmlns="http://www.w3.org/2000/svg" xmlns:xlink="http://www.w3.org/1999/xlink" xmlns:ev="http://www.w3.org/2001/xml-events"
		width="1.1274in" height="1.42984in" viewBox="0 0 81.1729 102.949" xml:space="preserve" color-interpolation-filters="sRGB"
		class="st4">
	<style type="text/css">
	<![CDATA[
		.st1 {fill:#68217a;stroke:none;stroke-linecap:butt;stroke-width:12.24}
		.st2 {fill:#ffffff;fill-opacity:0.098;stroke:none;stroke-linecap:butt;stroke-width:12.24}
		.st3 {fill:#ffffff;stroke:none;stroke-linecap:butt;stroke-width:12.24}
		.st4 {fill:none;fill-rule:evenodd;font-size:12px;overflow:visible;stroke-linecap:square;stroke-miterlimit:3}
	]]>
	</style>

	<g>
		<title>Page-1</title>
		<g id="group17575-1" transform="translate(12.24,-34.0157)">
			<title>ExpressRoute Health.17575</title>
			<g id="group17576-2">
				<title>Sheet.17576</title>
				<g id="shape17577-3">
					<title>Sheet.17577</title>
					<path d="M28.35 102.95 A5.18976 5.18976 0 0 1 24.65 101.42 L1.53 78.3 A5.26063 5.26063 0 0 1 -0 74.6 C0 73.23
								 0.56 71.88 1.53 70.91 L24.65 47.79 A5.19449 5.19449 0 0 1 28.35 46.26 A5.19685 5.19685 0 0 1 32.05
								 47.79 L55.16 70.91 C56.15 71.89 56.69 73.2 56.69 74.6 C56.69 76 56.15 77.31 55.16 78.3 L32.04 101.42
								 A5.18976 5.18976 0 0 1 28.35 102.95 Z" class="st1"/>
				</g>
				<g id="shape17578-5" transform="translate(2.8777E-13,-11.5606)">
					<title>Sheet.17578</title>
					<path d="M32.05 59.35 A5.19449 5.19449 -180 0 0 28.35 57.82 A5.19331 5.19331 -180 0 0 24.65 59.35 L1.53 82.47
								 C0.56 83.44 0 84.79 0 86.16 C0 87.54 0.56 88.89 1.53 89.86 L14.62 102.95 L39.24 66.55 L32.05 59.35
								 Z" class="st2"/>
				</g>
				<g id="group17579-7" transform="translate(8.26772,-8.26772)">
					<title>Sheet.17579</title>
					<g id="shape17580-8">
						<title>Sheet.17580</title>
						<path d="M29.71 88.78 L23.5 94.98 A4.70669 4.70669 -180 0 0 21.51 93.74 L21.51 72 C23.41 71.39 24.8 69.62
									 24.8 67.52 A4.72441 4.72441 -180 0 0 15.35 67.52 C15.35 67.68 15.39 67.84 15.4 68 L5.21 78.2
									 C5.05 78.18 4.89 78.15 4.72 78.15 A4.72441 4.72441 -180 1 0 4.72 87.59 C4.89 87.59 5.05 87.56
									 5.21 87.55 L15.4 97.74 C15.39 97.9 15.35 98.06 15.35 98.22 A4.72441 4.72441 -180 0 0 24.8 98.22
									 C24.8 98.07 24.77 97.92 24.76 97.77 L33.75 88.78 L29.71 88.78 ZM7.99 86.28 C8.88 85.42 9.45
									 84.21 9.45 82.87 C9.45 81.53 8.88 80.32 7.99 79.46 L16.67 70.78 C17.21 71.34 17.89 71.75 18.65
									 72 L18.65 93.74 A4.69134 4.69134 -180 0 0 16.67 94.96 L7.99 86.28 Z" class="st3"/>
					</g>
					<g id="shape17581-10" transform="translate(25.9843,-16.5354)">
						<title>Sheet.17581</title>
						<path d="M0 95.86 L3.54 95.86 L3.54 102.95 L0 102.95 L0 95.86 ZM11.81 93.5 L15.35 93.5 L15.35 102.95 L11.81
									 102.95 L11.81 93.5 ZM5.91 89.96 L9.45 89.96 L9.45 102.95 L5.91 102.95 L5.91 89.96 Z"
								class="st3"/>
					</g>
				</g>
			</g>
		</g>
	</g>
</svg>
